X:1
T:Reel St. Etienne
M:C|
K:D
Ad| "D"f2>f2 fgfe| dedc (3BcB Ac| "Em"e2>e2 efed | "A7"cBAG F2 Ad|
"D"f2>f2 fgfe| dedc (3BcB Ac| "Em" efed "A7"cBAG |"A"FABc "D"d2:|
|:AG | "D"FdAF dBAG | FdAF dfed | "A7"ceAc eAce | AecA B2 AG|
"D"FdAF dBAG | FdAF d2 cB | "A7"Acef gece | "D"dfec d2:|
